assets/images/facebook.svg

<svg width="48" height="48" viewBox="0 0 48 48" fill="none" xmlns="http://www.w3.org/2000/svg">
<circle cx="24" cy="24" r="24" fill="#0866FF"/>
<path d="M39 24.0376C39 15.7369 32.28 9 24 9C15.72 9 9 15.7369 9 24.0376C9 31.3158 14.16 37.376 21 38.7744V28.5489H18V24.0376H21V20.2782C21 17.376 23.355 15.015 26.25 15.015H30V19.5264H27C26.175 19.5264 25.5 20.203 25.5 21.0301V24.0376H30V28.5489H25.5V39C33.075 38.2481 39 31.8421 39 24.0376Z" fill="white"/>
</svg>

<svg width="48" height="48" fill="none" xmlns="http://www.w3.org/2000/svg"><circle cx="24" cy="24" r="24" fill="#0866FF"/><path d="M39 24.038C39 15.737 32.28 9 24 9 15.72 9 9 15.737 9 24.038c0 7.278 5.16 13.338 12 14.736V28.55h-3v-4.511h3v-3.76c0-2.902 2.355-5.263 5.25-5.263H30v4.511h-3c-.825 0-1.5.677-1.5 1.504v3.008H30v4.51h-4.5V39c7.575-.752 13.5-7.158 13.5-14.962Z" fill="#fff"/></svg>
